!! 00000] TT[WS
!!!OTL: Zao xikao
!!!ARE: Asia, China, Shanxi Yanbei
!! Ethnic Group: Han
!! WII, 73 (2)
!!!SCT: J0506
!!!YEM: Copyright 1995, estate of Helmut Schaffrath.
**kern
*ICvox
*Ivox
*M2/4
*k[b-]
*F:
{4cc
4cc
=1
8ff
8gg
8ff
8dd
=2
2cc}
=3
{8ff
8gg
8ff
8dd
=4
8cc
8dd
8a
8g
=5
2f}
=6
{8g
8a
[4cc
=7
4cc]
8ff
8dd
=8
8cc
8dd
8a
8g
=9
2f}
=10
{4a
8a
8cc
=11
8a
8g
8f
8d
=12
2c}
==
!!!AGN: Xiaodiao, Zouxikou. Qingge
!!!ONB: ESAC (Essen Associative Code) Database: CHINA
!!!AMT: simple duple
!!!AIN: vox
!!!EED: Helmut Schaffrath
!!!EEV: 1.0
*-
!!!ONB: Tied note syntax fixed by Craig Sapp, 2004/05/03/
